samples/luts/SLog3_to_ACESRec709.cube
TITLE "Generated by Foundry::LUT"
LUT_3D_SIZE 32
0.000000 0.000000 0.000000
0.000000 0.000000 0.000000
0.000000 0.000000 0.000000
0.000000 0.000000 0.000000
0.000000 0.000000 0.000000
0.003136 0.000000 0.000000
0.071987 0.000000 0.000000
0.114493 0.000000 0.000000
0.149222 0.000000 0.000000
0.189113 0.000000 0.000000
0.236474 0.000000 0.000000
0.290629 0.000000 0.000000
0.351007 0.000000 0.000000
0.422807 0.000000 0.000000
0.507755 0.000000 0.000000
0.603492 0.000000 0.000000
0.703140 0.000000 0.000000
0.804405 0.000000 0.000000
0.899696 0.000000 0.000000
0.978325 0.000000 0.023594
1.000000 0.000000 0.056464
1.000000 0.000000 0.084611
1.000000 0.000000 0.114667
1.000000 0.000000 0.148316
1.000000 0.000000 0.187207
1.000000 0.000000 0.231429
1.000000 0.000000 0.283129
1.000000 0.000000 0.344411
1.000000 0.000000 0.416606
1.000000 0.070858 0.494948
1.000000 0.315389 0.576262
1.000000 0.441878 0.658755
0.000000 0.000000 0.000000
0.000000 0.000000 0.000000
0.000000 0.000000 0.000000
0.000000 0.000000 0.000000
0.000000 0.000000 0.000000
0.037816 0.000000 0.000000
0.084212 0.000000 0.000000
0.121013 0.000000 0.000000
0.154490 0.000000 0.000000
0.194112 0.000000 0.000000
0.240852 0.000000 0.000000
0.293999 0.000000 0.000000
0.353976 0.000000 0.000000
0.425579 0.000000 0.000000
0.510154 0.000000 0.000000
0.605388 0.000000 0.000000
0.704610 0.000000 0.000000
0.805503 0.000000 0.000000
0.900396 0.000000 0.000000
0.978771 0.000000 0.023837
1.000000 0.000000 0.056592
1.000000 0.000000 0.084710
1.000000 0.000000 0.114747
1.000000 0.000000 0.148387
1.000000 0.000000 0.187265
1.000000 0.000000 0.231481
1.000000 0.000000 0.283172
1.000000 0.000000 0.344452
1.000000 0.000000 0.416640
1.000000 0.070976 0.494975
1.000000 0.315427 0.576283
1.000000 0.441899 0.658770
0.000000 0.000000 0.000000
0.000000 0.000000 0.000000
0.000000 0.000000 0.000000
0.000000 0.000000 0.000000
0.000000 0.000000 0.000000
0.056091 0.000000 0.000000
0.095170 0.000000 0.000000
0.127022 0.000000 0.000000
0.160027 0.000000 0.000000
0.199001 0.000000 0.000000
0.245150 0.000000 0.000000
0.297489 0.000000 0.000000
0.356900 0.000000 0.000000
0.428320 0.000000 0.000000
0.512592 0.000000 0.000000
0.607273 0.000000 0.000000
0.706074 0.000000 0.000000
0.806598 0.000000 0.000000
0.901095 0.000000 0.000000
0.979215 0.000000 0.024080
1.000000 0.000000 0.056720
1.000000 0.000000 0.084810
1.000000 0.000000 0.114827
1.000000 0.000000 0.148459
1.000000 0.000000 0.187323
1.000000 0.000000 0.231534
1.000000 0.000000 0.283216
1.000000 0.000000 0.344493
1.000000 0.000000 0.416673
1.000000 0.071094 0.495002
1.000000 0.315466 0.576303
1.000000 0.441920 0.658786
0.000000 0.002371 0.000000
0.000000 0.002069 0.000000
0.000000 0.001764 0.000000
0.000000 0.001455 0.000000
0.019881 0.000000 0.000000
0.068381 0.000000 0.000000
0.103983 0.000000 0.000000
0.132670 0.000000 0.000000
0.164858 0.000000 0.000000
0.203400 0.000000 0.000000
0.249119 0.000000 0.000000
0.300872 0.000000 0.000000
0.359745 0.000000 0.000000
0.431032 0.000000 0.000000
0.515010 0.000000 0.000000
0.609147 0.000000 0.000000
0.707530 0.000000 0.000000
0.807690 0.000000 0.000000
0.901792 0.000000 0.000000
0.979658 0.000000 0.024322
1.000000 0.000000 0.056848
1.000000 0.000000 0.084909
1.000000 0.000000 0.114906
1.000000 0.000000 0.148530
1.000000 0.000000 0.187381
1.000000 0.000000 0.231586
1.000000 0.000000 0.283259
1.000000 0.000000 0.344534
1.000000 0.000000 0.416707
1.000000 0.071211 0.495029
1.000000 0.315504 0.576323
1.000000 0.441942 0.658801
0.000000 0.052402 0.000000
0.000000 0.052297 0.000000
0.000000 0.052192 0.000000
0.000000 0.052086 0.000000
0.000000 0.050934 0.000000
0.051426 0.048032 0.000000
0.089312 0.041767 0.000000
0.127549 0.024359 0.000000
0.164073 0.000000 0.000000
0.204167 0.000000 0.000000
0.250356 0.000000 0.000000
0.301924 0.000000 0.000000
0.360490 0.000000 0.000000
0.431785 0.000000 0.000000
0.515802 0.000000 0.000000
0.609813 0.000000 0.000000
0.708139 0.000000 0.000000
0.808237 0.000000 0.000000
0.902223 0.000000 0.000000
0.980018 0.000000 0.024415
1.000000 0.000000 0.056976
1.000000 0.000000 0.085009
1.000000 0.000000 0.114986
1.000000 0.000000 0.148601
1.000000 0.000000 0.187439
1.000000 0.000000 0.231638
1.000000 0.000000 0.283303
1.000000 0.000000 0.344575
1.000000 0.000000 0.416741
1.000000 0.071329 0.495056
1.000000 0.315543 0.576344
1.000000 0.441963 0.658816
0.000000 0.078380 0.000000
0.000000 0.078294 0.000000
0.000000 0.078207 0.000000
0.000000 0.077898 0.000000
0.000000 0.076699 0.000000
0.033674 0.074778 0.000000
0.081125 0.071453 0.000000
0.121039 0.065072 0.000000
0.162116 0.053207 0.000000
0.204478 0.012645 0.000000
0.251588 0.000000 0.000000
0.303061 0.000000 0.000000
0.361471 0.000000 0.000000
0.432826 0.000000 0.000000
0.516776 0.000000 0.000000
0.610483 0.000000 0.000000
0.708605 0.000000 0.000000
0.808543 0.000000 0.000000
0.902394 0.000000 0.000000
0.980151 0.000000 0.024060
1.000000 0.000000 0.056856
1.000000 0.000000 0.085006
1.000000 0.000000 0.115058
1.000000 0.000000 0.148672
1.000000 0.000000 0.187497
1.000000 0.000000 0.231690
1.000000 0.000000 0.283346
1.000000 0.000000 0.344616
1.000000 0.000000 0.416774
1.000000 0.071446 0.495082
1.000000 0.315582 0.576364
1.000000 0.441984 0.658831
0.000000 0.107433 0.000000
0.000000 0.107363 0.000000
0.000000 0.107294 0.000000
0.000000 0.106616 0.000000
0.000000 0.105539 0.000000
0.002221 0.104111 0.000000
0.068254 0.101745 0.000000
0.114162 0.097716 0.000000
0.158624 0.090850 0.000000
0.204907 0.079091 0.000000
0.253507 0.055977 0.000000
0.305000 0.005334 0.000000
0.363578 0.000000 0.000000
0.434442 0.000000 0.000000
0.518239 0.000000 0.000000
0.611528 0.000000 0.000000
0.709413 0.000000 0.000000
0.809076 0.000000 0.000000
0.902683 0.000000 0.000000
0.980353 0.000000 0.023553
1.000000 0.000000 0.056690
1.000000 0.000000 0.084901
1.000000 0.000000 0.114972
1.000000 0.000000 0.148682
1.000000 0.000000 0.187575
1.000000 0.000000 0.231760
1.000000 0.000000 0.283405
1.000000 0.000000 0.344672
1.000000 0.000000 0.416820
1.000000 0.071604 0.495119
1.000000 0.315633 0.576391
1.000000 0.442013 0.658852
0.000000 0.141890 0.000000
0.000000 0.141831 0.000000
0.000000 0.141363 0.000000
0.000000 0.140660 0.000000
0.000000 0.139690 0.000000
0.000000 0.138528 0.000000
0.025504 0.136737 0.000000
0.101006 0.133703 0.000000
0.151768 0.128981 0.000000
0.203248 0.121173 0.000000
0.255471 0.108803 0.000000
0.308031 0.087503 0.000000
0.367118 0.034517 0.000000
0.437218 0.000000 0.000000
0.520580 0.000000 0.000000
0.613048 0.000000 0.000000
0.710462 0.000000 0.000000
0.809884 0.000000 0.000000
0.903199 0.000000 0.000000
0.980688 0.000000 0.022802
1.000000 0.000000 0.056472
1.000000 0.000000 0.084763
1.000000 0.000000 0.114857
1.000000 0.000000 0.148590
1.000000 0.000000 0.187515
1.000000 0.000000 0.231824
1.000000 0.000000 0.283486
1.000000 0.000000 0.344748
1.000000 0.000000 0.416882
1.000000 0.071821 0.495168
1.000000 0.315705 0.576429
1.000000 0.442052 0.658881
0.000000 0.182662 0.000000
0.000000 0.182211 0.000000
0.000000 0.181573 0.000000
0.000000 0.180899 0.000000
0.000000 0.180041 0.000000
0.000000 0.179081 0.000000
0.000000 0.177632 0.000000
0.059956 0.175263 0.000000
0.137393 0.171637 0.000000
0.195673 0.165859 0.000000
0.253020 0.155895 0.000000
0.310665 0.141794 0.000000
0.372143 0.119471 0.000000
0.441792 0.072831 0.000000
0.524373 0.000000 0.000000
0.615361 0.000000 0.000000
0.711825 0.000000 0.000000
0.810651 0.000000 0.000000
0.903683 0.000000 0.000000
0.980689 0.000000 0.021105
1.000000 0.000000 0.056190
1.000000 0.000000 0.084587
1.000000 0.000000 0.114709
1.000000 0.000000 0.148469
1.000000 0.000000 0.187406
1.000000 0.000000 0.231734
1.000000 0.000000 0.283501
1.000000 0.000000 0.344849
1.000000 0.000000 0.416965
1.000000 0.072113 0.495235
1.000000 0.315801 0.576480
1.000000 0.442105 0.658918
0.000000 0.228778 0.000000
0.000000 0.228198 0.000000
0.000000 0.227610 0.000000
0.000000 0.226920 0.000000
0.000000 0.226137 0.000000
0.000000 0.225260 0.000000
0.000000 0.223952 0.000000
0.016512 0.221890 0.000000
0.097172 0.218631 0.000000
0.178227 0.213737 0.000000
0.243125 0.206382 0.000000
0.308470 0.195540 0.000000
0.376935 0.180265 0.000000
0.448623 0.156440 0.000000
0.530247 0.115148 0.000000
0.619076 0.026966 0.000000
0.713760 0.000000 0.000000
0.811422 0.000000 0.000000
0.903663 0.000000 0.000000
0.979852 0.000000 0.001829
1.000000 0.000000 0.055286
1.000000 0.000000 0.084377
1.000000 0.000000 0.114527
1.000000 0.000000 0.148318
1.000000 0.000000 0.187263
1.000000 0.000000 0.231615
1.000000 0.000000 0.283387
1.000000 0.000000 0.344827
1.000000 0.000000 0.417077
1.000000 0.072503 0.495324
1.000000 0.315929 0.576548
1.000000 0.442176 0.658969
0.000000 0.279316 0.000000
0.000000 0.278799 0.000000
0.000000 0.278237 0.000000
0.000000 0.277606 0.000000
0.000000 0.276913 0.000000
0.000000 0.276162 0.000000
0.000000 0.275054 0.000000
0.000000 0.273382 0.000000
0.040061 0.270882 0.000000
0.139034 0.267136 0.000000
0.224293 0.261616 0.000000
0.298425 0.253322 0.000000
0.374337 0.241254 0.000000
0.455587 0.224063 0.000000
0.538299 0.199192 0.000000
0.624950 0.160239 0.000000
0.716859 0.073942 0.000000
0.812345 0.000000 0.000000
0.903106 0.000000 0.000000
0.978023 0.000000 0.000000
1.000000 0.000000 0.041174
1.000000 0.000000 0.083445
1.000000 0.000000 0.114303
1.000000 0.000000 0.148127
1.000000 0.000000 0.187083
1.000000 0.000000 0.231464
1.000000 0.000000 0.283238
1.000000 0.000000 0.344702
1.000000 0.000000 0.417004
1.000000 0.073025 0.495443
1.000000 0.316101 0.576638
1.000000 0.442270 0.659037
0.000000 0.338560 0.000000
0.000000 0.338089 0.000000
0.000000 0.337581 0.000000
0.000000 0.336994 0.000000
0.000000 0.336412 0.000000
0.000000 0.335739 0.000000
0.000000 0.334824 0.000000
0.000000 0.333476 0.000000
0.000000 0.331434 0.000000
0.072550 0.328469 0.000000
0.183772 0.324162 0.000000
0.276986 0.317846 0.000000
0.363992 0.308229 0.000000
0.454482 0.294524 0.000000
0.545003 0.276484 0.000000
0.632568 0.251728 0.000000
0.721628 0.215294 0.000000
0.813950 0.148895 0.000000
0.902086 0.025044 0.000000
0.974838 0.000000 0.000000
1.000000 0.000000 0.000000
1.000000 0.000000 0.072897
1.000000 0.000000 0.113151
1.000000 0.000000 0.147901
1.000000 0.000000 0.186857
1.000000 0.000000 0.231272
1.000000 0.000000 0.283046
1.000000 0.000000 0.344539
1.000000 0.000000 0.416854
1.000000 0.073636 0.495336
1.000000 0.316321 0.576748
1.000000 0.442397 0.659128
0.000000 0.409863 0.000000
0.000000 0.409402 0.000000
0.000000 0.408951 0.000000
0.000000 0.408426 0.000000
0.000000 0.407926 0.000000
0.000000 0.407354 0.000000
0.000000 0.406571 0.000000
0.000000 0.405408 0.000000
0.000000 0.403791 0.000000
0.000000 0.401512 0.000000
0.105423 0.398193 0.000000
0.233681 0.393387 0.000000
0.340526 0.386327 0.000000
0.441830 0.375753 0.000000
0.541893 0.361135 0.000000
0.636998 0.342400 0.000000
0.726772 0.318115 0.000000
0.815782 0.284693 0.000000
0.899944 0.237079 0.000000
0.971156 0.126106 0.000000
1.000000 0.031826 0.000000
1.000000 0.000000 0.034873
1.000000 0.000000 0.101783
1.000000 0.000000 0.146250
1.000000 0.000000 0.186587
1.000000 0.000000 0.231034
1.000000 0.000000 0.282802
1.000000 0.000000 0.344330
1.000000 0.000000 0.416657
1.000000 0.074461 0.495178
1.000000 0.316404 0.576623
1.000000 0.442546 0.659219
0.000000 0.491049 0.000000
0.000000 0.490689 0.000000
0.000000 0.490278 0.000000
0.000000 0.489870 0.000000
0.000000 0.489453 0.000000
0.000000 0.488994 0.000000
0.000000 0.488363 0.000000
0.000000 0.487486 0.000000
0.000000 0.486173 0.000000
0.000000 0.484345 0.000000
0.004190 0.481795 0.000000
0.150845 0.478029 0.000000
0.297042 0.472509 0.000000
0.416988 0.464457 0.000000
0.526418 0.453063 0.000000
0.630408 0.438127 0.000000
0.727710 0.419630 0.000000
0.816644 0.397030 0.000000
0.896407 0.368612 0.000000
0.963794 0.334205 0.000000
0.998818 0.284697 0.000000
1.000000 0.210415 0.000000
1.000000 0.054199 0.058470
1.000000 0.000000 0.133939
1.000000 0.000000 0.184178
1.000000 0.000000 0.230749
1.000000 0.000000 0.282499
1.000000 0.000000 0.344066
1.000000 0.000000 0.416404
1.000000 0.075552 0.494974
1.000000 0.316523 0.576458
1.000000 0.442592 0.659095
0.000000 0.576247 0.000000
0.000000 0.575915 0.000000
0.000000 0.575542 0.000000
0.000000 0.575186 0.000000
0.000000 0.574844 0.000000
0.000000 0.574488 0.000000
0.000000 0.573911 0.000000
0.000000 0.573159 0.000000
0.000000 0.572133 0.000000
0.000000 0.570617 0.000000
0.000000 0.568495 0.000000
0.022614 0.565539 0.000000
0.227513 0.561172 0.000000
0.377251 0.554832 0.000000
0.499869 0.546150 0.000000
0.612778 0.534410 0.000000
0.718741 0.519569 0.000000
0.813263 0.502176 0.000000
0.890995 0.482763 0.000000
0.953456 0.460506 0.000000
0.997955 0.433314 0.000000
1.000000 0.395940 0.000000
1.000000 0.345087 0.000308
1.000000 0.247426 0.097936
1.000000 0.078126 0.169991
1.000000 0.000000 0.227512
1.000000 0.000000 0.282134
1.000000 0.000000 0.343739
1.000000 0.000000 0.416085
1.000000 0.076999 0.494714
1.000000 0.316691 0.576244
1.000000 0.442659 0.658934
0.000000 0.663027 0.000000
0.000000 0.662719 0.000000
0.000000 0.662420 0.000000
0.000000 0.662102 0.000000
0.000000 0.661795 0.000000
0.000000 0.661496 0.000000
0.000000 0.661030 0.000000
0.000000 0.660394 0.000000
0.000000 0.659510 0.000000
0.000000 0.658277 0.000000
0.000000 0.656524 0.000000
0.000000 0.654040 0.000000
0.045686 0.650442 0.000000
0.323357 0.645468 0.000000
0.464031 0.638660 0.000000
0.585958 0.629600 0.000000
0.699400 0.617803 0.000000
0.800471 0.603728 0.000000
0.879524 0.588895 0.000000
0.940404 0.573152 0.000000
0.992044 0.554296 0.000000
1.000000 0.531721 0.000000
1.000000 0.500259 0.000000
1.000000 0.457495 0.000000
1.000000 0.387290 0.135620
1.000000 0.246614 0.211176
1.000000 0.011799 0.277963
1.000000 0.000000 0.343346
1.000000 0.000000 0.415685
1.000000 0.078909 0.494384
1.000000 0.316945 0.575973
1.000000 0.442755 0.658722
0.000000 0.746977 0.000000
0.000000 0.746712 0.000000
0.000000 0.746454 0.000000
0.000000 0.746202 0.000000
0.000000 0.745956 0.000000
0.000000 0.745712 0.000000
0.000000 0.745331 0.000000
0.000000 0.744745 0.000000
0.000000 0.743995 0.000000
0.000000 0.743048 0.000000
0.000000 0.741503 0.000000
0.000000 0.739511 0.000000
0.075013 0.736526 0.000000
0.222851 0.732587 0.000000
0.420570 0.727321 0.000000
0.554121 0.720346 0.000000
0.672906 0.711333 0.000000
0.777290 0.700534 0.000000
0.860050 0.688925 0.000000
0.923404 0.676858 0.000000
0.973001 0.663898 0.000000
1.000000 0.648353 0.000000
1.000000 0.628613 0.000000
1.000000 0.600884 0.000000
1.000000 0.562366 0.064497
1.000000 0.500899 0.179875
1.000000 0.396137 0.260101
1.000000 0.092421 0.338082
1.000000 0.000000 0.415203
1.000000 0.081518 0.493971
1.000000 0.317316 0.575627
1.000000 0.442907 0.658457
0.000000 0.816537 0.000000
0.000000 0.816299 0.000000
0.000000 0.816066 0.000000
0.000000 0.815836 0.000000
0.000000 0.815611 0.000000
0.000000 0.815389 0.000000
0.000000 0.815095 0.000000
0.000000 0.814618 0.000000
0.000000 0.813972 0.000000
0.000000 0.813030 0.000000
0.000000 0.811840 0.000000
0.000000 0.810091 0.000000
0.000000 0.807723 0.000000
0.153098 0.804504 0.000000
0.384337 0.800302 0.000000
0.529416 0.794853 0.000000
0.651350 0.787967 0.000000
0.755175 0.779913 0.000000
0.838789 0.771217 0.000000
0.903668 0.762236 0.000000
0.953332 0.753119 0.000000
0.991122 0.743287 0.000000
1.000000 0.730950 0.000000
1.000000 0.715562 0.000000
1.000000 0.692524 0.000000
1.000000 0.659970 0.134932
1.000000 0.604854 0.234251
1.000000 0.513259 0.320688
1.000000 0.280796 0.408890
1.000000 0.085065 0.493475
1.000000 0.317867 0.575192
1.000000 0.443131 0.658118
0.000000 0.869981 0.000000
0.000000 0.869775 0.000000
0.000000 0.869573 0.000000
0.000000 0.869373 0.000000
0.000000 0.869175 0.000000
0.000000 0.868961 0.000000
0.000000 0.868647 0.000000
0.000000 0.868208 0.000000
0.000000 0.867561 0.000000
0.000000 0.866725 0.000000
0.000000 0.865654 0.000000
0.000000 0.864187 0.000000
0.073075 0.862112 0.000000
0.186380 0.859502 0.000000
0.365171 0.855953 0.000000
0.521028 0.851470 0.000000
0.641312 0.845994 0.000000
0.741005 0.839810 0.000000
0.820878 0.833362 0.000000
0.884940 0.826736 0.000000
0.935756 0.819966 0.000000
0.974625 0.813090 0.000000
1.000000 0.805776 0.000000
1.000000 0.796768 0.000000
1.000000 0.785183 0.000000
1.000000 0.768373 0.066217
1.000000 0.743302 0.210626
1.000000 0.699118 0.301891
1.000000 0.618904 0.392808
1.000000 0.424786 0.486251
1.000000 0.318716 0.574666
1.000000 0.443475 0.657689
0.000000 0.910760 0.000000
0.000000 0.910540 0.000000
0.000000 0.910321 0.000000
0.000000 0.910105 0.000000
0.000000 0.909891 0.000000
0.000000 0.909678 0.000000
0.000000 0.909395 0.000000
0.000000 0.909011 0.000000
0.000000 0.908477 0.000000
0.000000 0.907750 0.000000
0.000000 0.906701 0.000000
0.000000 0.905350 0.000000
0.007285 0.903635 0.000000
0.172217 0.901297 0.000000
0.405134 0.898306 0.000000
0.535044 0.894518 0.000000
0.646780 0.889960 0.000000
0.736646 0.885069 0.000000
0.810177 0.880085 0.000000
0.871485 0.874963 0.000000
0.921473 0.869755 0.000000
0.959979 0.864620 0.000000
0.990870 0.859329 0.000000
1.000000 0.853598 0.000000
1.000000 0.846471 0.000000
1.000000 0.837482 0.075071
1.000000 0.824043 0.208224
1.000000 0.805040 0.296891
1.000000 0.770890 0.384085
1.000000 0.709960 0.472462
1.000000 0.539464 0.566868
1.000000 0.444017 0.657168
0.000000 0.940428 0.000000
0.000000 0.940236 0.000000
0.000000 0.940044 0.000000
0.000000 0.939855 0.000000
0.000000 0.939642 0.000000
0.000000 0.939425 0.000000
0.000000 0.939135 0.000000
0.000000 0.938739 0.000000
0.000000 0.938218 0.000000
0.030227 0.937526 0.000000
0.079446 0.936621 0.000000
0.143056 0.935451 0.000000
0.227426 0.933940 0.000000
0.367281 0.931843 0.000000
0.468586 0.929249 0.000000
0.577713 0.926045 0.000000
0.663451 0.922388 0.000000
0.740523 0.918502 0.000000
0.807256 0.914499 0.000000
0.863736 0.910472 0.000000
0.910188 0.906513 0.000000
0.948118 0.902580 0.000000
0.979361 0.898574 0.000000
0.999134 0.894506 0.000000
1.000000 0.890252 0.024476
1.000000 0.884968 0.108145
1.000000 0.878193 0.225942
1.000000 0.868365 0.307497
1.000000 0.853630 0.388547
1.000000 0.828326 0.470997
1.000000 0.781341 0.556842
1.000000 0.641526 0.649211
0.102842 0.962687 0.000000
0.109549 0.962498 0.000000
0.116217 0.962310 0.000000
0.122849 0.962122 0.000000
0.129445 0.961936 0.000000
0.136003 0.961751 0.000000
0.144797 0.961503 0.000000
0.156831 0.961163 0.000000
0.172739 0.960714 0.000000
0.193690 0.960123 0.000000
0.247826 0.959357 0.000000
0.304043 0.958301 0.000000
0.370978 0.956912 0.000000
0.456665 0.955134 0.000000
0.556217 0.952914 0.000000
0.620556 0.950422 0.000000
0.694761 0.947409 0.000000
0.753926 0.944382 0.000000
0.811854 0.941112 0.000000
0.862404 0.937824 0.000000
0.904058 0.934692 0.000000
0.939798 0.931552 0.000000
0.970217 0.928363 0.000000
0.993075 0.925219 0.006793
1.000000 0.921992 0.085272
1.000000 0.918519 0.189686
1.000000 0.914282 0.263899
1.000000 0.908912 0.333301
1.000000 0.901044 0.405945
1.000000 0.889857 0.481345
1.000000 0.869826 0.561117
1.000000 0.834525 0.643491
0.262982 0.978656 0.000000
0.274705 0.978483 0.000000
0.286380 0.978310 0.000000
0.298007 0.978139 0.000000
0.309587 0.977967 0.000000
0.321121 0.977797 0.000000
0.336603 0.977568 0.000000
0.357838 0.977254 0.000000
0.385994 0.976838 0.000000
0.423212 0.976288 0.000000
0.467244 0.975580 0.000000
0.494469 0.974755 0.000000
0.529940 0.973679 0.000000
0.575797 0.972289 0.000000
0.627361 0.970565 0.000000
0.679571 0.968536 0.000000
0.727125 0.966353 0.000000
0.777570 0.963885 0.000000
0.823020 0.961318 0.000000
0.864481 0.958750 0.000000
0.901797 0.956198 0.000000
0.934531 0.953679 0.000000
0.962758 0.951175 0.045791
0.986371 0.948683 0.093972
0.999358 0.946165 0.194455
1.000000 0.943610 0.257806
1.000000 0.940956 0.313635
1.000000 0.937636 0.371708
1.000000 0.933414 0.433669
1.000000 0.927319 0.501513
1.000000 0.918266 0.574242
1.000000 0.902941 0.650542
0.498783 0.989945 0.026668
0.504415 0.989812 0.027434
0.510032 0.989680 0.028197
0.515633 0.989548 0.028958
0.521213 0.989417 0.029716
0.526780 0.989286 0.030472
0.534260 0.989109 0.031489
0.544538 0.988867 0.032885
0.558191 0.988546 0.034740
0.576291 0.988119 0.037199
0.600219 0.987556 0.040450
0.626721 0.986862 0.043371
0.644850 0.986134 0.045920
0.665823 0.985233 0.051976
0.692940 0.984067 0.059805
0.727665 0.982573 0.069830
0.768188 0.980771 0.079206
0.800255 0.979044 0.090945
0.839621 0.976922 0.105346
0.871317 0.974967 0.118825
0.903609 0.972870 0.134842
0.933185 0.970770 0.153187
0.958782 0.968743 0.181363
0.980656 0.966744 0.228323
0.997637 0.964742 0.274749
1.000000 0.962754 0.322284
1.000000 0.960741 0.370320
1.000000 0.958575 0.419135
1.000000 0.955942 0.472042
1.000000 0.952587 0.530560
1.000000 0.947636 0.595825
1.000000 0.940457 0.664580
0.660986 0.996076 0.244539
0.663220 0.996050 0.244625
0.665450 0.996024 0.244709
0.667675 0.995998 0.244794
0.669895 0.995972 0.244878
0.672109 0.995947 0.244962
0.675087 0.995912 0.245075
0.679187 0.995864 0.245231
0.684640 0.995801 0.245438
0.691884 0.995717 0.245713
0.701490 0.995605 0.246078
0.714187 0.995458 0.246560
0.728026 0.995147 0.247343
0.741014 0.994530 0.248634
0.757938 0.993726 0.250315
0.779822 0.992687 0.252488
0.803680 0.991481 0.254841
0.830604 0.990071 0.258102
0.856702 0.988588 0.263361
0.883767 0.986992 0.268807
0.909395 0.985345 0.277690
0.933932 0.983677 0.287924
0.956535 0.982023 0.300989
0.976562 0.980407 0.318167
0.993491 0.978803 0.349446
1.000000 0.977219 0.387164
1.000000 0.975639 0.428881
1.000000 0.974046 0.472794
1.000000 0.972378 0.518391
1.000000 0.970284 0.568917
1.000000 0.967573 0.624900
1.000000 0.963585 0.685187
0.750451 0.999971 0.366122
0.751775 0.999971 0.366180
0.753094 0.999971 0.366239
0.754412 0.999971 0.366297
0.755728 0.999971 0.366355
0.757043 0.999971 0.366414
0.758811 0.999971 0.366492
0.761246 0.999971 0.366600
0.764490 0.999971 0.366743
0.768806 0.999971 0.366934
0.774542 0.999971 0.367188
0.782144 0.999970 0.367525
0.792196 0.999970 0.367969
0.802358 0.999828 0.368643
0.811065 0.999537 0.369610
0.822411 0.999158 0.370870
0.837082 0.998668 0.372498
0.855874 0.998040 0.374582
0.877079 0.997205 0.377395
0.895559 0.996072 0.381355
0.918250 0.994680 0.386212
0.937106 0.993410 0.393132
0.956704 0.992041 0.401884
0.974683 0.990693 0.413145
0.990416 0.989390 0.428085
1.000000 0.988129 0.455483
1.000000 0.986888 0.490031
1.000000 0.985651 0.529029
1.000000 0.984404 0.570748
1.000000 0.983060 0.614557
1.000000 0.981371 0.661926
1.000000 0.979171 0.711051
0.819947 1.000000 0.471037
0.820603 1.000000 0.471078
0.821260 1.000000 0.471120
0.821915 1.000000 0.471161
0.822569 1.000000 0.471203
0.823223 1.000000 0.471244
0.824103 1.000000 0.471299
0.825316 1.000000 0.471376
0.826933 1.000000 0.471478
0.829089 1.000000 0.471614
0.831956 1.000000 0.471795
0.835766 1.000000 0.472035
0.840817 1.000000 0.472354
0.847494 1.000000 0.472776
0.854441 1.000000 0.473415
0.861657 1.000000 0.474340
0.871061 1.000000 0.475544
0.882868 1.000000 0.477091
0.896227 1.000000 0.479023
0.911790 0.999862 0.481650
0.927399 0.999340 0.485418
0.943682 0.999337 0.489900
0.959114 0.998452 0.496450
0.974210 0.998004 0.504648
0.987937 0.997044 0.515191
0.998536 0.996031 0.529244
1.000000 0.995033 0.554913
1.000000 0.994041 0.587917
1.000000 0.993063 0.625287
1.000000 0.992069 0.664068
1.000000 0.990966 0.702102
1.000000 0.989564 0.741498
0.866466 1.000000 0.570738
0.866871 1.000000 0.570768
0.867275 1.000000 0.570799
0.867679 1.000000 0.570829
0.868082 1.000000 0.570860
0.868485 1.000000 0.570890
0.869028 1.000000 0.570931
0.869777 1.000000 0.570988
0.870776 1.000000 0.571063
0.872108 1.000000 0.571164
0.873883 1.000000 0.571297
0.876245 1.000000 0.571475
0.879383 1.000000 0.571712
0.883543 1.000000 0.572025
0.888844 1.000000 0.572438
0.893691 1.000000 0.573053
0.898941 1.000000 0.573928
0.905782 1.000000 0.575068
0.914629 1.000000 0.576542
0.925960 1.000000 0.578428
0.938255 1.000000 0.580953
0.949568 1.000000 0.584510
0.963246 1.000000 0.588858
