samples/luts/SLog3_to_ACESRec709.cube
TITLE "Generated by Foundry::LUT"
LUT_3D_SIZE 8
DOMAIN_MIN 0.000000 0.000000 0.000000
DOMAIN_MAX 0.903226 0.903226 0.903226
0.000000 0.000000 0.000000
0.000000 0.000000 0.000000
0.149222 0.000000 0.000000
0.351007 0.000000 0.000000
0.703140 0.000000 0.000000
1.000000 0.000000 0.056464
1.000000 0.000000 0.187207
1.000000 0.000000 0.416606
0.000000 0.052402 0.000000
0.000000 0.050934 0.000000
0.164073 0.000000 0.000000
0.360490 0.000000 0.000000
0.708139 0.000000 0.000000
1.000000 0.000000 0.056976
1.000000 0.000000 0.187439
1.000000 0.000000 0.416741
0.000000 0.182662 0.000000
0.000000 0.180041 0.000000
0.137393 0.171637 0.000000
0.372143 0.119471 0.000000
0.711825 0.000000 0.000000
1.000000 0.000000 0.056190
1.000000 0.000000 0.187406
1.000000 0.000000 0.416965
0.000000 0.409863 0.000000
0.000000 0.407926 0.000000
0.000000 0.403791 0.000000
0.340526 0.386327 0.000000
0.726772 0.318115 0.000000
1.000000 0.031826 0.000000
1.000000 0.000000 0.186587
1.000000 0.000000 0.416657
0.000000 0.746977 0.000000
0.000000 0.745956 0.000000
0.000000 0.743995 0.000000
0.075013 0.736526 0.000000
0.672906 0.711333 0.000000
0.973001 0.663898 0.000000
1.000000 0.562366 0.064497
1.000000 0.000000 0.415203
0.000000 0.940428 0.000000
0.000000 0.939642 0.000000
0.000000 0.938218 0.000000
0.227426 0.933940 0.000000
0.663451 0.922388 0.000000
0.910188 0.906513 0.000000
1.000000 0.890252 0.024476
1.000000 0.853630 0.388547
0.660986 0.996076 0.244539
0.669895 0.995972 0.244878
0.684640 0.995801 0.245438
0.728026 0.995147 0.247343
0.803680 0.991481 0.254841
0.909395 0.985345 0.277690
0.993491 0.978803 0.349446
1.000000 0.972378 0.518391
0.902811 1.000000 0.664475
0.903684 1.000000 0.664554
0.905141 1.000000 0.664686
0.909811 1.000000 0.665108
0.923099 1.000000 0.666529
0.948356 1.000000 0.671418
0.986474 1.000000 0.686238
1.000000 1.000000 0.731930
0.000000 0.000000 0.043835
0.000000 0.000000 0.040543
0.152547 0.000000 0.035960
0.354586 0.000000 0.000000
0.705057 0.000000 0.000000
1.000000 0.000000 0.056631
1.000000 0.000000 0.187283
1.000000 0.000000 0.416650
0.000000 0.040105 0.039643
0.035664 0.035663 0.035664
0.171109 0.000000 0.032715
0.364837 0.000000 0.000000
0.710358 0.000000 0.000000
1.000000 0.000000 0.057143
1.000000 0.000000 0.187515
1.000000 0.000000 0.416785
0.000000 0.176894 0.000000
0.000000 0.174024 0.000000
0.150956 0.165227 0.000000
0.376465 0.110913 0.000000
0.713946 0.000000 0.000000
1.000000 0.000000 0.056437
1.000000 0.000000 0.187511
1.000000 0.000000 0.417009
0.000000 0.406861 0.000000
0.000000 0.404927 0.000000
0.000000 0.400743 0.000000
0.348245 0.382879 0.000000
0.728653 0.314010 0.000000
1.000000 0.028581 0.000000
1.000000 0.000000 0.186691
1.000000 0.000000 0.416720
0.000000 0.746013 0.000000
0.000000 0.745005 0.000000
0.000000 0.743007 0.000000
0.084351 0.735469 0.000000
0.675569 0.710215 0.000000
0.973520 0.662762 0.000000
1.000000 0.560742 0.064704
1.000000 0.000000 0.415263
0.000000 0.940212 0.000000
0.000000 0.939413 0.000000
0.000401 0.937994 0.000000
0.237037 0.933718 0.000000
0.665458 0.922207 0.000000
0.910497 0.906384 0.000000
1.000000 0.890126 0.023963
1.000000 0.853444 0.388559
0.662434 0.996051 0.244461
0.671331 0.995947 0.244799
0.686058 0.995776 0.245358
0.728798 0.995099 0.247292
0.804260 0.991441 0.254770
0.909568 0.985323 0.277632
0.993517 0.978787 0.349456
1.000000 0.972362 0.518377
0.902953 1.000000 0.664460
0.903826 1.000000 0.664539
0.905282 1.000000 0.664670
0.909950 1.000000 0.665093
0.923182 1.000000 0.666518
0.948421 1.000000 0.671403
0.986495 1.000000 0.686225
1.000000 1.000000 0.731932
0.000000 0.000000 0.158115
0.000000 0.000000 0.156658
0.130390 0.000000 0.153707
0.358830 0.000000 0.142726
0.704490 0.000000 0.118224
1.000000 0.000000 0.056911
1.000000 0.000000 0.187410
1.000000 0.000000 0.416724
0.000000 0.000000 0.156766
0.000000 0.000000 0.155454
0.157217 0.000000 0.152219
0.370045 0.000000 0.141258
0.710329 0.000000 0.116836
1.000000 0.000000 0.057421
1.000000 0.000000 0.187641
1.000000 0.000000 0.416858
0.000000 0.158866 0.149099
0.000000 0.155020 0.147222
0.141725 0.141725 0.141725
0.367377 0.079322 0.136674
0.715511 0.000000 0.113053
1.000000 0.000000 0.056847
1.000000 0.000000 0.187691
1.000000 0.000000 0.417082
0.000000 0.397231 0.086838
0.000000 0.395339 0.085695
0.000000 0.391242 0.084121
0.346896 0.373135 0.074488
0.725767 0.304527 0.019887
1.000000 0.023065 0.000000
1.000000 0.000000 0.186864
1.000000 0.000000 0.416824
0.000000 0.743362 0.000000
0.000000 0.742403 0.000000
0.000000 0.740426 0.000000
0.072715 0.732930 0.000000
0.677990 0.707858 0.000000
0.974390 0.660851 0.000000
1.000000 0.558010 0.065049
1.000000 0.000000 0.415362
0.000000 0.939852 0.000000
0.000000 0.939030 0.000000
0.013680 0.937616 0.000000
0.253074 0.933347 0.000000
0.668811 0.921902 0.000000
0.911015 0.906166 0.000000
1.000000 0.889913 0.023103
1.000000 0.853131 0.388579
0.664857 0.996009 0.244329
0.673736 0.995906 0.244666
0.688432 0.995735 0.245225
0.730090 0.995018 0.247205
0.805230 0.991373 0.254650
0.909857 0.985285 0.277534
0.993561 0.978760 0.349473
1.000000 0.972336 0.518353
0.903191 1.000000 0.664435
0.904063 1.000000 0.664514
0.905518 1.000000 0.664645
0.910183 1.000000 0.665068
0.923322 1.000000 0.666500
0.948530 1.000000 0.671380
0.986529 1.000000 0.686205
1.000000 1.000000 0.731935
0.000000 0.000000 0.362042
0.000000 0.000000 0.361309
0.001721 0.000000 0.359947
0.342593 0.000000 0.353179
0.724287 0.000000 0.338560
1.000000 0.000000 0.304306
1.000000 0.000000 0.190205
1.000000 0.000000 0.416961
0.000000 0.000000 0.361339
0.000000 0.000000 0.360605
0.054181 0.000000 0.359038
0.358132 0.000000 0.352258
0.729423 0.000000 0.337804
1.000000 0.000000 0.303627
1.000000 0.000000 0.189260
1.000000 0.000000 0.417095
0.000000 0.083426 0.359236
0.000000 0.079711 0.358603
0.085630 0.062247 0.357177
0.370023 0.000000 0.350876
0.729313 0.000000 0.336199
1.000000 0.000000 0.302248
1.000000 0.000000 0.188270
1.000000 0.000000 0.417319
0.000000 0.362827 0.342589
0.000000 0.361134 0.342145
0.000000 0.357149 0.341386
0.338175 0.338173 0.338174
0.711999 0.262243 0.326552
1.000000 0.000000 0.294676
1.000000 0.000000 0.187420
1.000000 0.000000 0.417155
0.000000 0.733285 0.286316
0.000000 0.732163 0.285723
0.000000 0.730296 0.284673
0.000000 0.722754 0.281250
0.672416 0.696573 0.269986
0.972773 0.649133 0.230669
1.000000 0.548065 0.071386
1.000000 0.000000 0.415686
0.000000 0.938886 0.223800
0.000000 0.938027 0.222631
0.039450 0.936615 0.220659
0.234578 0.932306 0.214563
0.664383 0.920754 0.196606
0.910198 0.905062 0.123564
1.000000 0.889223 0.020308
1.000000 0.852114 0.388644
0.670661 0.995909 0.245072
0.679644 0.995807 0.244819
0.694534 0.995640 0.244571
0.733300 0.994793 0.246743
0.808214 0.991158 0.254214
0.910790 0.985161 0.277217
0.993703 0.978673 0.349527
1.000000 0.972250 0.518275
0.903959 1.000000 0.664354
0.904829 1.000000 0.664432
0.906281 1.000000 0.664564
0.910936 1.000000 0.664985
0.923773 1.000000 0.666440
0.948880 1.000000 0.671302
0.986640 1.000000 0.686137
1.000000 1.000000 0.731946
0.000000 0.000000 0.695955
0.000000 0.000000 0.695678
0.000000 0.000000 0.695212
0.185650 0.000000 0.692337
0.710193 0.000000 0.682095
1.000000 0.000000 0.666646
1.000000 0.000000 0.625256
1.000000 0.000000 0.452048
0.000000 0.000000 0.695683
0.000000 0.000000 0.695406
0.000000 0.000000 0.694943
0.220818 0.000000 0.691886
0.716990 0.000000 0.681765
1.000000 0.000000 0.666382
1.000000 0.000000 0.624965
1.000000 0.000000 0.451582
0.000000 0.000000 0.695225
0.000000 0.000000 0.694947
0.000000 0.000000 0.694474
0.259187 0.000000 0.691085
0.728221 0.000000 0.681213
1.000000 0.000000 0.665939
1.000000 0.000000 0.624477
1.000000 0.000000 0.450817
0.000000 0.235430 0.689342
0.000000 0.233406 0.689127
0.000000 0.229047 0.688724
0.270401 0.200047 0.686378
0.735766 0.000000 0.678535
1.000000 0.000000 0.663817
1.000000 0.000000 0.622426
1.000000 0.000000 0.447706
0.000000 0.694955 0.661265
0.000000 0.693944 0.661071
0.000000 0.692090 0.660724
0.000000 0.684241 0.659447
0.655178 0.655177 0.655178
0.966913 0.600993 0.642797
1.000000 0.474300 0.605526
1.000000 0.000000 0.435392
0.000000 0.935287 0.638241
0.000000 0.934448 0.637977
0.000000 0.933088 0.637571
0.103973 0.928635 0.636142
0.634663 0.916649 0.631943
0.898716 0.900151 0.620634
1.000000 0.884223 0.578230
1.000000 0.848405 0.388977
0.642616 0.995611 0.638908
0.654976 0.995513 0.638684
0.674357 0.995348 0.638352
0.707430 0.993965 0.637415
0.792732 0.990084 0.634156
0.900492 0.984023 0.623461
0.988475 0.977713 0.586982
1.000000 0.971977 0.518024
0.905208 1.000000 0.672222
0.906103 1.000000 0.672123
0.907598 1.000000 0.671954
0.912362 1.000000 0.671149
0.924626 1.000000 0.668504
0.949845 1.000000 0.670958
0.986994 1.000000 0.685918
1.000000 1.000000 0.731981
0.000000 0.000000 0.934149
0.000000 0.000000 0.934118
0.000000 0.000000 0.934066
0.000000 0.000000 0.933886
0.574397 0.000000 0.927123
1.000000 0.000000 0.918793
1.000000 0.000000 0.911651
1.000000 0.000000 0.891334
0.000000 0.000000 0.934118
0.000000 0.000000 0.934087
0.000000 0.000000 0.934035
0.000000 0.000000 0.933853
0.583558 0.000000 0.926954
1.000000 0.000000 0.918746
1.000000 0.000000 0.911616
1.000000 0.000000 0.891292
0.000000 0.000000 0.934066
0.000000 0.000000 0.934035
0.000000 0.000000 0.933983
0.000000 0.000000 0.933796
0.598667 0.000000 0.926675
1.000000 0.000000 0.918667
1.000000 0.000000 0.911558
1.000000 0.000000 0.891222
0.000000 0.000000 0.933888
0.000000 0.000000 0.933858
0.000000 0.000000 0.933805
0.000000 0.000000 0.933099
0.640132 0.000000 0.925873
1.000000 0.000000 0.918408
1.000000 0.000000 0.911365
1.000000 0.000000 0.890995
0.000000 0.519974 0.916767
0.000000 0.518987 0.916788
0.000000 0.517157 0.916828
0.000000 0.508425 0.916507
0.622742 0.461543 0.914033
0.997079 0.318724 0.911097
1.000000 0.000000 0.909146
1.000000 0.000000 0.890044
0.000000 0.923306 0.888483
0.000000 0.922571 0.888403
0.000000 0.921375 0.888271
0.051805 0.916911 0.887805
0.532041 0.903452 0.886300
0.883740 0.883739 0.883740
0.998787 0.864750 0.878667
1.000000 0.813001 0.863392
0.557901 0.995489 0.879395
0.572155 0.995086 0.879335
0.592525 0.994460 0.879247
0.649643 0.992581 0.878987
0.756303 0.988418 0.878197
0.882187 0.981660 0.876437
0.975018 0.974907 0.872302
1.000000 0.968948 0.854731
0.890325 1.000000 0.880191
0.891409 1.000000 0.880162
0.893218 1.000000 0.880112
0.898701 1.000000 0.879954
0.909510 1.000000 0.879624
0.937661 1.000000 0.878449
0.977046 1.000000 0.874793
1.000000 1.000000 0.860918
0.000000 0.000000 1.000000
0.000000 0.000000 1.000000
0.000000 0.000000 1.000000
0.000000 0.000000 1.000000
0.000000 0.000000 1.000000
0.959392 0.000000 1.000000
1.000000 0.000000 1.000000
1.000000 0.000000 0.998593
0.000000 0.000000 1.000000
0.000000 0.000000 1.000000
0.000000 0.000000 1.000000
0.000000 0.000000 1.000000
0.000000 0.000000 1.000000
0.960613 0.000000 1.000000
1.000000 0.000000 1.000000
1.000000 0.000281 0.998589
0.000000 0.000000 1.000000
0.000000 0.000000 1.000000
0.000000 0.000000 1.000000
0.000000 0.000000 1.000000
0.000000 0.000000 1.000000
0.962648 0.000000 1.000000
1.000000 0.000000 1.000000
1.000000 0.000810 0.998583
0.000000 0.000000 1.000000
0.000000 0.000000 1.000000
0.000000 0.000000 1.000000
0.000000 0.000000 1.000000
0.002640 0.000000 1.000000
0.969154 0.000000 1.000000
1.000000 0.000000 1.000000
1.000000 0.002519 0.998562
0.000000 0.000000 1.000000
0.000000 0.000000 1.000000
0.000000 0.000000 1.000000
0.000000 0.000000 1.000000
0.275448 0.000000 1.000000
0.987286 0.000000 1.000000
1.000000 0.000000 1.000000
1.000000 0.007861 0.998495
0.000000 0.837558 0.986490
0.000000 0.837386 0.986498
0.000000 0.836902 0.986525
0.000000 0.835187 0.986545
0.112949 0.820206 0.985559
0.883620 0.780477 0.983611
1.000000 0.720120 0.984651
1.000000 0.429587 0.992909
0.245195 0.995035 0.971368
0.265201 0.994677 0.971311
0.298413 0.994082 0.971217
0.403467 0.992203 0.970920
0.640550 0.986515 0.970312
0.856197 0.976661 0.969418
0.968551 0.968551 0.968551
1.000000 0.961527 0.966548
0.867908 1.000000 0.967210
0.869045 1.000000 0.967202
0.870943 1.000000 0.967188
0.876510 1.000000 0.967150
0.891324 1.000000 0.967037
0.924973 1.000000 0.966714
0.969539 1.000000 0.965990
0.999831 1.000000 0.964286
0.000000 0.069813 1.000000
0.000000 0.069807 1.000000
0.000000 0.069797 1.000000
0.000000 0.069768 1.000000
0.000000 0.069664 1.000000
0.000000 0.032760 1.000000
1.000000 0.000000 1.000000
1.000000 0.096896 1.000000
0.000000 0.069807 1.000000
0.000000 0.069800 1.000000
0.000000 0.069791 1.000000
0.000000 0.069762 1.000000
0.000000 0.069658 1.000000
0.000000 0.032321 1.000000
1.000000 0.000000 1.000000
1.000000 0.097401 1.000000
0.000000 0.069797 1.000000
0.000000 0.069790 1.000000
0.000000 0.069781 1.000000
0.000000 0.069753 1.000000
0.000000 0.069648 1.000000
0.000000 0.031588 1.000000
1.000000 0.000000 1.000000
1.000000 0.098247 1.000000
0.000000 0.069764 1.000000
0.000000 0.069759 1.000000
0.000000 0.069750 1.000000
0.000000 0.069722 1.000000
0.000000 0.069616 1.000000
0.000000 0.029230 1.000000
1.000000 0.000000 1.000000
1.000000 0.100979 1.000000
0.000000 0.069665 1.000000
0.000000 0.069659 1.000000
0.000000 0.069650 1.000000
0.000000 0.069617 1.000000
0.000000 0.069514 1.000000
0.039924 0.023480 1.000000
1.000000 0.000000 1.000000
1.000000 0.109667 1.000000
0.000000 0.069293 1.000000
0.000000 0.069288 1.000000
0.000000 0.069279 1.000000
0.000000 0.069248 1.000000
0.000000 0.069137 1.000000
0.552451 0.035087 1.000000
1.000000 0.000000 1.000000
1.000000 0.135244 1.000000
0.000000 0.977256 1.000000
0.000000 0.977237 1.000000
0.000000 0.977196 1.000000
0.000000 0.977036 1.000000
0.053824 0.974622 1.000000
0.702153 0.948883 1.000000
0.969238 0.930330 1.000000
1.000000 0.909611 1.000000
0.718101 1.000000 0.999941
0.722275 1.000000 0.999939
0.729247 1.000000 0.999937
0.751659 1.000000 0.999929
0.818054 1.000000 0.999911
0.890385 1.000000 0.999811
0.960147 1.000000 0.999590
0.999518 0.999517 0.999518
