samples/luts/SLog3_to_ACESRec709.cube
TITLE "Generated by Foundry::LUT"
LUT_3D_SIZE 5
DOMAIN_MIN 0.000000 0.000000 0.000000
DOMAIN_MAX 0.903226 0.903226 0.903226
0.000000 0.000000 0.000000
0.114493 0.000000 0.000000
0.507755 0.000000 0.000000
1.000000 0.000000 0.084611
1.000000 0.000000 0.416606
0.000000 0.141890 0.000000
0.101006 0.133703 0.000000
0.520580 0.000000 0.000000
1.000000 0.000000 0.084763
1.000000 0.000000 0.416882
0.000000 0.576247 0.000000
0.000000 0.573159 0.000000
0.499869 0.546150 0.000000
1.000000 0.395940 0.000000
1.000000 0.000000 0.416085
0.102842 0.962687 0.000000
0.156831 0.961163 0.000000
0.556217 0.952914 0.000000
0.939798 0.931552 0.000000
1.000000 0.901044 0.405945
0.902811 1.000000 0.664475
0.904601 1.000000 0.664637
0.915081 1.000000 0.665586
0.957868 1.000000 0.673677
1.000000 1.000000 0.731930
0.000000 0.000000 0.122634
0.092053 0.000000 0.118884
0.510096 0.000000 0.095868
1.000000 0.000000 0.084878
1.000000 0.000000 0.416696
0.000000 0.122973 0.115271
0.109236 0.109235 0.109236
0.524350 0.000000 0.091554
1.000000 0.000000 0.085138
1.000000 0.000000 0.416972
0.000000 0.570847 0.000000
0.000000 0.567844 0.000000
0.506913 0.540758 0.000000
1.000000 0.389579 0.000000
1.000000 0.000000 0.416208
0.110498 0.962320 0.000000
0.164154 0.960805 0.000000
0.561648 0.952604 0.000000
0.940211 0.931379 0.000000
1.000000 0.900830 0.405944
0.903103 1.000000 0.664444
0.904890 1.000000 0.664606
0.915362 1.000000 0.665554
0.957959 1.000000 0.673656
1.000000 1.000000 0.731934
0.000000 0.000000 0.521675
0.000000 0.000000 0.520691
0.511774 0.000000 0.510552
1.000000 0.000000 0.468448
1.000000 0.000000 0.417233
0.000000 0.000000 0.520676
0.000000 0.000000 0.519684
0.533676 0.000000 0.509374
1.000000 0.000000 0.467465
1.000000 0.000000 0.417508
0.000000 0.522830 0.495321
0.000000 0.519818 0.494696
0.489951 0.489949 0.489950
1.000000 0.305945 0.453480
1.000000 0.000000 0.416955
0.000000 0.960832 0.443140
0.040564 0.959343 0.442299
0.535097 0.950996 0.437067
0.936738 0.929511 0.398833
1.000000 0.899547 0.405933
0.904837 1.000000 0.664261
0.906616 1.000000 0.664422
0.917039 1.000000 0.665365
0.958506 1.000000 0.673528
1.000000 1.000000 0.731959
0.000000 0.000000 0.964136
0.000000 0.000000 0.964094
0.020875 0.000000 0.963291
1.000000 0.000000 0.948211
1.000000 0.000000 0.931955
0.000000 0.000000 0.964094
0.000000 0.000000 0.964052
0.051864 0.000000 0.962921
1.000000 0.000000 0.948157
1.000000 0.000000 0.931907
0.000000 0.000000 0.963817
0.000000 0.000000 0.963774
0.145197 0.000000 0.961228
1.000000 0.000000 0.947828
1.000000 0.000000 0.931604
0.000000 0.950961 0.916690
0.000000 0.949353 0.916519
0.228495 0.940038 0.915570
0.912547 0.912546 0.912547
1.000000 0.875669 0.901458
0.887312 1.000000 0.909277
0.889767 1.000000 0.909235
0.898402 1.000000 0.909052
0.944039 1.000000 0.907767
1.000000 1.000000 0.897831
0.000000 0.069813 1.000000
0.000000 0.069800 1.000000
0.000000 0.069735 1.000000
0.408044 0.023431 1.000000
1.000000 0.096896 1.000000
0.000000 0.069800 1.000000
0.000000 0.069788 1.000000
0.000000 0.069723 1.000000
0.427215 0.023412 1.000000
1.000000 0.097933 1.000000
0.000000 0.069729 1.000000
0.000000 0.069718 1.000000
0.000000 0.069647 1.000000
0.540343 0.023257 1.000000
1.000000 0.104103 1.000000
0.000000 0.069075 1.000000
0.000000 0.069061 1.000000
0.000000 0.068984 1.000000
0.927761 0.000000 1.000000
1.000000 0.144020 1.000000
0.718101 1.000000 0.999941
0.726658 1.000000 0.999938
0.777043 1.000000 0.999920
0.908950 1.000000 0.999733
0.999518 0.999517 0.999518
